dist/assets/icons/icon/stage-2.svg

<svg width="164" height="165" viewBox="0 0 164 165" fill="none" xmlns="http://www.w3.org/2000/svg">
<path d="M55.7121 91.2016C56.0772 91.6216 56.7231 91.6668 57.1431 91.3017L70.937 79.3108L81.0777 90.99C81.4428 91.4101 82.0887 91.4552 82.5087 91.0901L113.174 64.4093C113.594 64.0442 113.639 63.3983 113.274 62.9782L108.94 57.9918C108.574 57.5718 107.929 57.5266 107.508 57.8918L82.6019 79.5666L72.4612 67.8874C72.0961 67.4673 71.4502 67.4222 71.0301 67.7873L51.4775 84.7841C51.0575 85.1493 51.0123 85.7951 51.3775 86.2152L55.7121 91.2016Z" fill="#F2DDFD"/>
<path d="M134.494 41.7968L89.4086 38.6442L89.9754 30.539C90.0143 29.9817 89.5903 29.4939 89.0331 29.455L81.941 28.959C81.3838 28.9201 80.896 29.3441 80.857 29.9014L80.2902 38.0066L35.205 34.8539C32.9634 34.6971 31.0258 36.3815 30.869 38.6231L26.264 104.478C26.1073 106.72 27.7916 108.657 30.0332 108.814L75.1691 111.97L74.8857 116.023L53.0575 128.253C52.5677 128.525 52.3976 129.136 52.6688 129.626L56.0881 135.872L56.0872 135.885C56.3584 136.375 56.9828 136.546 57.4726 136.274L78.8372 124.304L98.3279 139.131C98.7753 139.468 99.4173 139.386 99.7541 138.938L99.7549 138.926L104.01 133.216C104.347 132.769 104.251 132.139 103.816 131.803L83.9508 116.695L84.2368 112.604L129.322 115.757C131.564 115.914 133.501 114.229 133.658 111.988L138.263 46.1328C138.42 43.8912 136.735 41.9536 134.494 41.7968ZM124.894 106.284L35.7366 100.05L39.6332 44.3265L128.79 50.561L124.894 106.284Z" fill="#F2DDFD"/>
</svg>

<svg width="164" height="165" viewBox="0 0 164 165" fill="none" xmlns="http://www.w3.org/2000/svg"><path d="M55.712 91.202a1.02 1.02 0 0 0 1.431.1L70.937 79.31l10.14 11.679a1.02 1.02 0 0 0 1.432.1l30.665-26.68a1.02 1.02 0 0 0 .1-1.432l-4.334-4.986a1.02 1.02 0 0 0-1.432-.1L82.602 79.567l-10.14-11.68a1.02 1.02 0 0 0-1.432-.1L51.477 84.784a1.02 1.02 0 0 0-.1 1.431l4.335 4.987Z" fill="#F2DDFD"/><path d="m134.494 41.797-45.085-3.153.566-8.105a1.019 1.019 0 0 0-.942-1.084l-7.092-.496a1.019 1.019 0 0 0-1.084.942l-.567 8.106-45.085-3.153a4.058 4.058 0 0 0-4.336 3.77l-4.605 65.854a4.058 4.058 0 0 0 3.77 4.336l45.135 3.156-.283 4.053-21.828 12.23c-.49.272-.66.883-.39 1.373l3.42 6.246v.013c.27.49.895.661 1.385.389l21.364-11.97 19.49 14.827a1.02 1.02 0 0 0 1.427-.193v-.012l4.256-5.71a1.016 1.016 0 0 0-.194-1.413l-19.865-15.108.286-4.091 45.085 3.153a4.058 4.058 0 0 0 4.336-3.769l4.605-65.855a4.058 4.058 0 0 0-3.769-4.336Zm-9.6 64.487-89.157-6.234 3.896-55.723 89.157 6.234-3.896 55.723Z" fill="#F2DDFD"/></svg>
